X:1
T:Baille Ionara
M:6/8
L:1/8
Q:80
C:The Campbells are Coming
S:March 6/8
K:HP
A|:
{g}B2{GdG}e{g}d3/2B/2G|
{g}d3/2B/2{G}B{gBd}B2{e}A|
{g}B2{GdG}e{g}d3/2B/2G|  !
{g}d2{GdG}A{gAd}A2{e}G|
{g}B2{GdG}e{g}d3/2B/2G|
{g}G3/2A/2B{gf}g3/2{a}f/2a|  !
g3/2{a}e/2g{g}d3/2B/2A|
{g}d2{GdG}A{gAd}A2{e}G:| |:
{gf}g2e{gf}g2a|  !
{Gdc}d3/2e/2d{gde}d3/2B/2{d}G|
{gf}g2e{gf}g2a|
{ef}e2{GdG}e{gef}e3/2d/2B|  !
{Gdc}d3/2e/2d{gf}g3/2f/2e|
{Gdc}d3/2e/2d{gf}g3/2{a}f/2a|
g3/2{a}e/2g{g}d3/2B/2A|  !
{g}d2{GdG}A{gAd}A2{e}G:|

